X:2359
L:1/8
Q:1/8=120
M:2/2
K:D
 DF | A2 A>B AFED | f2 f>d edBG | A2 AB AFED | E2 E>F E2 FG | A2 A>B AFED | f2 f>d edBG | 
 A2 de fedc | d2 d>c d2 :| Ad | f3 a Adfa | g2 fg/f/ e2 fg | afdA FAGF | E2 E>F E2 FG | ADFA dFAd | 
 fagf edcB | Adfa gecA | d2 d>c d2 :|

